src/lib/packages/icons/src/assets/filled/message-code.svg

<svg width="24" height="24" viewBox="0 0 24 24" fill="none" xmlns="http://www.w3.org/2000/svg">
<path d="M18 3H6C4 3 3 4 3 6V21L6 18H18C20 18 21 17 21 15V6C21 4 20 3 18 3ZM11.03 11.97C11.323 12.263 11.323 12.738 11.03 13.031C10.884 13.177 10.692 13.251 10.5 13.251C10.308 13.251 10.116 13.178 9.96997 13.031L7.96997 11.031C7.67697 10.738 7.67697 10.263 7.96997 9.96997L9.96997 7.96997C10.263 7.67697 10.738 7.67697 11.031 7.96997C11.324 8.26297 11.324 8.73801 11.031 9.03101L9.56104 10.501L11.03 11.97ZM16.03 11.03L14.03 13.03C13.884 13.176 13.692 13.25 13.5 13.25C13.308 13.25 13.116 13.177 12.97 13.03C12.677 12.737 12.677 12.262 12.97 11.969L14.4399 10.499L12.97 9.02905C12.677 8.73605 12.677 8.26102 12.97 7.96802C13.263 7.67502 13.738 7.67502 14.031 7.96802L16.031 9.96802C16.323 10.263 16.323 10.737 16.03 11.03Z" fill="currentColor"/>
</svg>

<svg xmlns="http://www.w3.org/2000/svg" width="24" height="24" fill="none"><path fill="currentColor" d="M18 3H6C4 3 3 4 3 6v15l3-3h12c2 0 3-1 3-3V6c0-2-1-3-3-3Zm-6.97 8.97a.75.75 0 0 1-1.06 1.061l-2-2a.75.75 0 0 1 0-1.061l2-2a.75.75 0 1 1 1.061 1.061l-1.47 1.47 1.469 1.469Zm5-.94-2 2a.748.748 0 0 1-1.06 0 .75.75 0 0 1 0-1.061l1.47-1.47-1.47-1.47a.75.75 0 0 1 1.061-1.061l2 2a.752.752 0 0 1-.001 1.062Z"/></svg>
